X: 6736
T: Champion, The
R: jig
M: 6/8
K: Eminor
|:Bee gee|bee g2 e|fdB fdB|fag fed|
Bee gee|bee g2 a|b2 b agf|1 gee e2 A:|2 ~g3 gfe||
|:d3 cdc|Bdg bgd|cBc afd|Bdg bge|
d2 d cdc|Bdg bgd|cBc afd|~g3 gfe:|

